X:1
T:Title
%%score { ( 1 3 ) | 2 }
L:1/8
M:4/4
K:A
V:1 treble nm="Grand Piano"
V:3 treble 
V:2 bass 
V:1
 z4 z2 z[Q:1/4=100] [CE] | [CE]2 [CE]>[CE] [DF]2 [CE]>[=C^D] | [CE]2 [EA]>B c3 c | c2 B>^A B2 c>B | %4
[M:7/8] [CA]2 [EG]>[DF] [CE]3 |[M:1/8] [CE] |[M:4/4] [CE]2 [CE]>[CE] [DF]2 [CE]>[=C^D] | %7
 [CE]2 [EA]>B c3 c | [Fd]2 [EFc]>[DFB] A2 G>A |[M:7/8] c2 B>B [CA]3 |[M:1/8] [EA] | %11
[M:4/4] B2 B>c B3 E | c2 c>d c3 c | z E,dd c2 c>c |[M:7/8] B-B-B- B3 z |[M:1/8] E | %16
[M:4/4] [CA]2 [CA]>[DB] [CA]3 [EA] |[M:19/16] B-<Bc>c[Fd]/-[Fd]/-[Fd]/-[Fd]/-[Fd]/-[Fd]-<[Fd][Fd] | %18
[M:4/4] c2 BA B2 AG |[M:7/8] [CEA]-[CEA]-[CEA]- [CEA]3 z |] %20
V:2
 z4 z2 z [A,,A,] | [A,,A,]2 [A,,A,]>[A,,A,] [A,,A,]2 [A,,A,]>[A,,A,] | %2
 [A,,A,]2 [C,A,]>[E,G,E] [A,E]3 [A,E] | [E,A,E]2 [E,G,D]>[E,=G,C] [E,^G,D]2 [E,G,E]>[E,G,D] | %4
[M:7/8] [A,,A,]2 [A,,A,]>[A,,A,] [A,,A,]3 |[M:1/8] [A,,A,] | %6
[M:4/4] [A,,A,]2 [A,,A,]>[A,,A,] [A,,A,]2 [A,,A,]>[A,,A,] | [A,,A,]2 [C,A,]>[E,G,E] [A,E]3 [A,E] | %8
 [D,A,]2 D,>D, [E,CE]2 [E,B,E]>[E,CE] |[M:7/8] [E,A,E]2 [E,G,D]>[E,G,D] [A,,A,]3 |[M:1/8] [C,A,] | %11
[M:4/4] [E,G,E]2 [E,G,E]>[E,A,E] [E,G,E]3 [E,G,] | [A,E]2 [A,E]>[A,F] [A,E]3 [A,E] | %13
 .[D,A,]2 [F,A,F][K:treble][G,A,F] [A,E]2[K:bass] [A,E]>[A,E] | %14
[M:7/8] [E,G,E]-[E,G,E]-[E,G,E]- [E,G,E]3 z |[M:1/8] [E,G,D] | %16
[M:4/4] [A,,A,]2 [A,,E,]>[A,,E,] [A,,E,]3 [C,A,] | %17
[M:19/16] [E,G,E]-<[E,G,E][K:treble][A,=G]>[A,G][K:bass][D,A,]/-[D,A,]/-[D,A,]/-[D,A,]/-[D,A,]/-[D,A,]-<[D,A,][D,A,] | %18
[M:4/4] [E,A,E]2 [E,B,E][E,CE] [E,DE]2 [E,CE][E,B,E] |[M:7/8] A,,-A,,-A,,- A,,3 z |] %20
V:3
 x8 | x8 | x8 | x8 |[M:7/8] x7 |[M:1/8] x |[M:4/4] x8 | x8 | x8 |[M:7/8] x7 |[M:1/8] x | %11
[M:4/4] x8 | x8 | [Fd]2 z2 z4 |[M:7/8] x7 |[M:1/8] x |[M:4/4] x8 |[M:19/16] x19/2 |[M:4/4] x8 | %19
[M:7/8] x7 |] %20

